X:1
T:Étude, op. 30 no 20
T:Étude, op. 30 no 20
T:Joachim Andersen
C:Joachim Andersen
L:1/8
Q:3/8=46
M:9/8
K:Eb
V:1 treble nm="Flûte" snm="Fl."
V:1
"^Adagio"!mf!{/c} e2{/c} f{/c} e2{/=B} a{/c} g2{/e} d' | %1
!<(!{/d} c'2{/d} =b{/^c} ^a2{/d} b{/f} e'2{/f} d' | %2
{/d} =b2{/e} c'{/=B} d'2{/c} e'!<)!{/a} f'2{/a} ^f' | %3
!>(!{/g} g'2{/g} =f'{/g} d'2{/f} =b{/d} a2{/d} g!>)! | %4
!mf!!<(!{/c} e2{/c} f{/c} e2{/=B} a{/c} g2{/^c} _b | %5
{/d} =a2{/=e} ^g{/f} a2{/f} d'!<)!{/a} f'2{/=g} =e' | %6
{/f} d'2{/B} ^g{/=A} =a2{/B} a{/=B} a2{/^c} a | %7
!>(!{/d} =a2{/c} _a{/=B} g2{/G} g{/A} g{/=A}g!>)!{/B}g | %8
!mf!!<(!{/c} e2{/c} f{/c} e2{/=B} a{/c} g2{/e} d' | %9
{/d} c'2{/d} =b{/^c} ^a2{/d} b!<)!{/f} e'2{/f} d' | %10
"_cresc."{/d} =b2{/e} c'{/=B} d'2{/c} e'{/a} f'2{/a} ^f' | %11
!>(!{/g} g'2{/g} =f'{/g} d'2{/f} =b{/d} a2{/d} g!>)! | %12
!mf!{/c} e2{/c} f{/c} e2{/=B} a{/c} g2{/e} c' | %13
!<(!{/d} b2{/e} c'{/d} b2{/^f} e'{/g} d'2!<)!{/b} g' | %14
!p!{/=A} e2{/G} f{/G} e2{/^F} d{/B} ^c2{/A} d | %15
!<(!{/G} g2{/d} b!<)!!>(!{/^c} =a2{/=c} ^f!>)!{/B} g2 z || %16
!p!{/f} a2{/g} b{/f} a2{/e} a{/d} a2{/c} ^f | %17
!<(!{/=B} g2{/d} =b{/f} d'2{/=e} ^c'!<)!{/_e} =c'2{/d} b | %18
!>(!{/c} _a2{/c} ^f{/=B} g2{/_B} =e{/=A} =f2{/_A} ^f |{/G} g2{/e} ^f{/d} =f2{/c} e!>)!{/=B} d2 z | %20
!p!{/f} a2{/g} b{/f} a2{/e} a{/d} a2{/c} ^f | %21
!<(!{/=B} g2{/d} =b{/f} d'2{/a} f'{/f} d'2!<)!{/e} c' | %22
{/d} =b2{/c} a!>(!{/=B} g2{/c} ^f{/d} =f2{/^c} =e |{/c} _e2{/=B} d{/^A} ^c2{/B} d!>)!{/G} g2 z | %24
!p!{/c} e2!<(!{/B} g{/=A} _g2!<)!!>(!{/_A} f{/G} e2!>)!{/=B} d | %25
!p!{/c} e2!<(!{/B} g{/=A} _g2!<)!!>(!{/_A} f{/G} e2{/=B} d!>)! | %26
!<(!{/c} e2{/B} =e{/A} f2{/G} g{/F} a2!<)!{/D} =b | %27
{/E} c'2!>(!{/=E} b{/F} a2{/B} g{/=A} ^f2!>)!{/_A} =f | %28
!p!{/G} e2!<(!{/c} g{/c} g2{/e} c'{/e} c'2!<)!{/g} e' | %29
!>(!{/g} e'2{/c'} g'{/c'} g'2{/a} e'{/g} e'2{/e} c'!>)! | %30
!p!{/G} d2!<(!{/d} g{/d} g2{/g} =b{/g} b2{/b} d'!<)! | %31
!>(!{/=b} d'2{/g} b{/g} b2{/f} g{/f} g2!>)!{/=B} f || %32
!mf!{/c} e2{/c} f{/c} e2{/=B} a{/c} g2{/e} d' | %33
{/d} c'2"_cresc."{/d} =b{/^c} ^a2{/d} b{/f} e'2{/f} d' | %34
!<(!{/d} =b2{/e} c'{/=B} d'2{/c} e'{/a} f'2{/a} ^f'!<)! | %35
!>(!{/g} g'2{/g} =f'{/g} d'2{/f} =b{/d} a2{/d} g!>)! | %36
!mf!{/c} e2{/c} f!<(!{/c} e2{/=B} a{/c} g2{/^c} _b | %37
{/d} =a2{/=e} ^g{/f} a2!<)!{/f} d'{/a} f'2{/=g} =e' | %38
{/f} d'2{/B} ^g{/=A} =a2{/B} a{/=B} a2{/^c} a | %39
!>(!{/d} =a2{/c} _a{/=B} g2{/G} g{/A} g{/=A}g!>)!{/B}g |{/c} e2{/c} f{/c} e2{/=B} a{/c} g2{/e} d' | %41
{/d} c'2{/d} =b!<(!{/^c} ^a2{/d} b{/f} e'2{/f} d' | %42
{/d} =b2{/e} c'{/=B} d'2{/c} e'!<)!{/a} f'2{/a} ^f' | %43
!>(!{/g} g'2{/g} =f'{/g} d'2{/f} =b{/d} a2{/d} g!>)! | %44
!mf!!<(!{/c} e2{/B} =e{/=A} f2{/_A} ^f{/G} g2{/^F} ^g!<)! | %45
{/F} =a2{/D} =b{/E} c'2{/G} _b!>(!{/F} _a2{/E} g |{/A} ^f2{/G} g{/A} g2{/=A} g{/B} g2!>)!{/=B} g | %47
!p!{/c} c'2{/^F} e{/G} e2!mf!{/c} a{/=B} g2{/d} =b | %48
{/c} c'2!p!{/^F} e{/G} e2!mf!!>(!{/c} a{/=B} g2!>)!{/=F} B | %49
{/E} c2{/c} a{/c} g2{/G} f{/G} e2{/E} d |{/E} c3- c2{/A} c{/G} c2{/F} =B | %51
{/E} c3- c2"_dim."{/A} c{/G} c2{/F} =B |{/E} c2{/G} f{/G} e2{/=B} a{/c} g2{/e} d' | %53
!pp!{/e} c'6- c'3 |] %54

